modules/feathericon/icons/taxi.svg

<?xml version="1.0" encoding="UTF-8"?>
<svg width="24px" height="24px" viewBox="0 0 24 24" version="1.1" xmlns="http://www.w3.org/2000/svg" xmlns:xlink="http://www.w3.org/1999/xlink">
    <!-- Generator: sketchtool 52.2 (67145) - http://www.bohemiancoding.com/sketch -->
    <title>taxi</title>
    <desc>Created with sketchtool.</desc>
    <g id="vehicles" stroke="none" stroke-width="1" fill="none" fill-rule="evenodd">
        <g id="taxi" fill="#000000" fill-rule="nonzero">
            <path d="M8.31378846,5.05863462 L9,3 L15,3 L15.6862115,5.05863462 C17.5683952,5.3840365 19,7.02483364 19,9 L19,12 C20.1045695,12 21,12.8954305 21,14 L21,19 C21,20.1045695 20.1045695,21 19,21 C17.8954305,21 17,20.1045695 17,19 L7,19 C7,20.1045695 6.1045695,21 5,21 C3.8954305,21 3,20.1045695 3,19 L3,14 C3,12.8954305 3.8954305,12 5,12 L5,9 C5,7.02483364 6.43160483,5.3840365 8.31378846,5.05863462 Z M9,7 C7.8954305,7 7,7.8954305 7,9 L7,12 L17,12 L17,9 C17,7.8954305 16.1045695,7 15,7 L9,7 Z M6,16 C6.55228475,16 7,15.5522847 7,15 C7,14.4477153 6.55228475,14 6,14 C5.44771525,14 5,14.4477153 5,15 C5,15.5522847 5.44771525,16 6,16 Z M18,16 C18.5522847,16 19,15.5522847 19,15 C19,14.4477153 18.5522847,14 18,14 C17.4477153,14 17,14.4477153 17,15 C17,15.5522847 17.4477153,16 18,16 Z" id="Shape"></path>
        </g>
    </g>
</svg>

<svg width="24" height="24" viewBox="0 0 24 24" xmlns="http://www.w3.org/2000/svg"><path d="M8.314 5.059L9 3h6l.686 2.059A4.001 4.001 0 0 1 19 9v3a2 2 0 0 1 2 2v5a2 2 0 1 1-4 0H7a2 2 0 1 1-4 0v-5a2 2 0 0 1 2-2V9a4.001 4.001 0 0 1 3.314-3.941zM9 7a2 2 0 0 0-2 2v3h10V9a2 2 0 0 0-2-2H9zm-3 9a1 1 0 1 0 0-2 1 1 0 0 0 0 2zm12 0a1 1 0 1 0 0-2 1 1 0 0 0 0 2z" fill="#000" fill-rule="nonzero"/></svg>
